packages/icons/svg/24/ImageAlt.svg

<svg width="24" height="24" viewBox="0 0 24 24" fill="none" xmlns="http://www.w3.org/2000/svg">
<path fill-rule="evenodd" clip-rule="evenodd" d="M6 4C4.34315 4 3 5.34315 3 7V17C3 18.6569 4.34315 20 6 20H18C19.6569 20 21 18.6569 21 17V7C21 5.34315 19.6569 4 18 4H6ZM11 15.51L8.9 12.98C8.69 12.73 8.31 12.74 8.12 13L5.63 16.2C5.37 16.53 5.6 17.01 6.02 17.01H18.01C18.42 17.01 18.66 16.54 18.41 16.21L14.9 11.53C14.7 11.26 14.3 11.26 14.1 11.52L11 15.51Z" fill="#858585"/>
</svg>

<svg width="24" height="24" fill="none" xmlns="http://www.w3.org/2000/svg" viewBox="0 0 24 24"><path fill-rule="evenodd" clip-rule="evenodd" d="M6 4a3 3 0 00-3 3v10a3 3 0 003 3h12a3 3 0 003-3V7a3 3 0 00-3-3H6zm5 11.51l-2.1-2.53a.493.493 0 00-.78.02l-2.49 3.2c-.26.33-.03.81.39.81h11.99a.5.5 0 00.4-.8l-3.51-4.68c-.2-.27-.6-.27-.8-.01L11 15.51z" fill="currentColor"></path></svg>
